X:122
T: Weltliches Mailied
N: A0143
O: Europa, Mitteleuropa, Deutschland
N: Original unter "Wer sich des Maiens woelle"
R: Romanze, Ballade, Lied
M: 4/4
L: 1/8
K: Bb
B2 | B2B2B2G2 | F4c3
d | c3BA2G2 | F3GF2
B2 | B2B2A2F2 | B4c2
c2 | c2c2d2d2 | c3Bc2
c2 | f2e2d2c2 | B4e2
c2 | d2c2B2A2 | B4z2

